;%_N_SMCL0820_MPF
;PROGRAM-VERSION=1
;PROGRAMMER=1
;DESCRIPTION=0
;RUN-TIME=0-34-40
;CUTTING-TIME=0-33-1
;SECURITY-CLASS=2
;PROGRAM-TYPE=1
;PROGRAM-CLASS=0
;DOWNLOAD-TARGET=0
;PART:C:\Users\29302758\Desktop\20231023\SMCL0820.aptsource
;PARTNO:20231023
;MSG("PROGRAM: SMCL0820")
;MSG("NC MACHINE:DMG 160P ")
;MSG("CONTROLLER :SIEMENS 840D")
;MSG("PROGRAMMER:Xifei")
;MSG("APPROVE:Xifei")
;MSG("DATE: 20-Aug-2024 09:47:27.46")
;Start of Program
N1 G40 G17 G710 G94 G90 G60 G601 FNORM
N2 G54
N3 TRAFOOF
N4 TRANS
N5 CYCLE800()
N6 L_FREI
N7 G0 SUPA Z-1 D0
N8 G0 SUPA X700 Y0 D0
N9 G710
N10 G64
;TOOL_NAME:D20R0L80
;Tool change
;TOOL NAME: D20R0L80
N11 T="888"
N12 M6
N13 D1
N14 G1 G94 B0 C0 F9999.9
N15 X0
N16 M256
N17 G94
;N18 M8
N19 G1 B0 C0 F9999.9
N20 FGROUP (X,Y,Z,B,C)
N21 G642
N22 COMPCAD
N23 SOFT
N24 FFWON
N25 CYCLE832(0.01,_FINISH,1)
N26 TSONN(1,0820)
;OPERATION NAME:Pocketing.330
N27 TRAORI
N28 G54
STMEA(0.0)
SCANMEA(6, 1)
;JINDAO
N29 X-0.250 Y0.250 Z-0.354 A45 C45 F10000
N30 X-0.462 Y0.620 Z0.212 B52 C096
N31 X0.244 Y0.733 Z0.212 B52 C41 F1000
N32 X0.204 Y0.745 Z0.212 B052 C044
N33 X0.000 Y0.000 Z0.344 B0 C0
N34 X0.000 Y0.000 Z0.344 B0 C0
N35 X0.000 Y0.000 Z0.344 B0 C0
N36 X0.000 Y0.000 Z0.344 B0 C0 F4000
N37 X0.000 Y0.000 Z0.344 B0 C0 F3200
N38 X0.000 Y0.000 Z0.344 B0 C0
N39 X0.000 Y0.000 Z0.344 B0 C0
N40 X0.000 Y0.000 Z0.344 B0 C0 F4000
N41 X0.000 Y0.000 Z0.344 B0 C0 F3200
N42 X0.000 Y0.000 Z0.344 B0 C0
N43 X0.000 Y0.000 Z0.344 B0 C0 F4000
N44 X0.000 Y0.000 Z0.344 B0 C0
N45 X0.000 Y0.000 Z0.344 B0 C0 F3200
N46 X0.000 Y0.000 Z0.344 B0 C0
N47 X-3.210 Y95.714 Z85.476 B0 C0
N48 X-6.756 Y95.123 Z85.476 B0 C0
N49 X-6.756 Y100.123 Z85.476 B0 C0
N50 X-6.756 Y123.969 Z85.475 B0 C0 F4000
N51 X-6.756 Y128.969 Z85.475 B0 C0 F3200
N52 X-1.757 Y129.070 Z85.472 B0 C0
N53 X0.021 Y129.105 Z799.500 B0 C0 F4000
N54 X9.245 Y129.322 Z85.472 B0 C0
N55 X14.244 Y129.440 Z85.472 B0 C0 F3200
N56 X14.244 Y124.440 Z85.472 B0 C0
N57 X14.244 Y103.727 Z85.475 B0 C0 F4000
N58 X14.244 Y98.727 Z85.475 B0 C0 F3200
N59 X9.318 Y97.866 Z85.475 B0 C0
N60 X6.119 Y97.307 Z85.475 B0 C0 F4000
N61 X2.590 Y96.704 Z85.476 B0 C0
N62 X3.094 Y93.747 Z85.476 B0 C0
N63 X3.263 Y92.761 Z85.476 B0 C0 F3200
N64 X3.936 Y88.818 Z85.476 B0 C0
N65 X-0.993 Y87.977 Z67.750 B0 C0
N66 X-1.879 Y87.825 Z85.476 B0 C0 F4000
N67 X-9.822 Y86.502 Z85.476 B0 C0
N68 X-11.100 Y86.289 Z85.476 B0 C0 F3200
N69 X-14.756 Y85.696 Z85.476 B0 C0
N70 X-14.756 Y90.696 Z85.476 B0 C0
N71 X-14.756 Y131.810 Z85.475 B0 C0 F4000
N72 X-14.756 Y136.810 Z85.495 B0 C0 F3200
N73 X-9.757 Y136.910 Z85.475 B0 C0
N74 X-0.166 Y137.103 Z67.750 B0 C0 F4000
N75 X13.126 Y137.413 Z85.472 B0 C0
N76 X17.245 Y137.522 Z85.472 B0 C0
N77 X22.244 Y137.653 Z85.472 B0 C0 F3200
N78 X22.244 Y132.653 Z85.472 B0 C0
N79 X22.244 Y97.026 Z85.475 B0 C0 F4000
N80 X22.244 Y92.026 Z85.475 B0 C0 F3200
N81 X17.322 Y91.145 Z85.475 B0 C0
N82 X16.987 Y91.086 Z85.475 B0 C0 F4000
N83 X7.481 Y89.424 Z85.475 B0 C0
N84 X3.936 Y88.818 Z85.476 B0 C0
N85 X4.440 Y85.861 Z85.476 B0 C0
N86 X4.609 Y84.875 Z85.476 B0 C0 F3200
N87 X5.282 Y80.932 Z85.476 B0 C0
N88 X0.353 Y80.091 Z67.750 B0 C0
N89 X-0.549 Y79.937 Z67.750 B0 C0 F4000
N90 X-9.802 Y78.395 Z85.476 B0 C0
N91 X-17.818 Y77.094 Z85.476 B0 C0
N92 X-18.920 Y76.915 Z85.476 B0 C0 F3200
N93 X-22.756 Y76.308 Z85.476 B0 C0
N94 X-22.756 Y81.308 Z85.476 B0 C0
N95 X-22.756 Y139.672 Z85.514 B0 C0 F4000
N96 X-22.756 Y144.672 Z85.514 B0 C0 F3200
N97 X-17.757 Y144.759 Z85.514 B0 C0
N98 X-13.721 Y144.829 Z85.505 B0 C0 F4000
N99 X-0.352 Y145.101 Z67.750 B0 C0
N100 X12.915 Y145.410 Z85.472 B0 C0
N101 X25.246 Y145.735 Z85.472 B0 C0
N102 X26.101 Y145.757 Z85.472 B0 C0 F3200
N103 X30.244 Y145.879 Z85.472 B0 C0
N104 X30.244 Y140.879 Z85.472 B0 C0
N105 X30.244 Y90.338 Z85.475 B0 C0 F4000
N106 X30.244 Y85.338 Z85.475 B0 C0 F3200
N107 X28.069 Y84.941 Z85.475 B0 C0
N108 X25.323 Y84.450 Z85.475 B0 C0
N109 X18.381 Y83.208 Z85.475 B0 C0 F4000
N110 X8.843 Y81.540 Z85.475 B0 C0
N111 X5.282 Y80.932 Z85.476 B0 C0
N112 X5.786 Y77.975 Z85.476 B0 C0
N113 X5.955 Y76.989 Z85.476 B0 C0 F3200
N114 X6.627 Y73.046 Z85.476 B0 C0
N115 X1.699 Y72.205 Z85.476 B0 C0
N116 X0.782 Y72.048 Z67.750 B0 C0 F4000
N117 X-8.503 Y70.501 Z85.476 B0 C0
N118 X-17.655 Y69.016 Z85.476 B0 C0
N119 X-25.815 Y67.726 Z85.482 B0 C0
N120 X-26.676 Y67.590 Z85.482 B0 C0 F3200
N121 X-30.756 Y66.962 Z85.482 B0 C0
N122 X-30.756 Y71.962 Z85.482 B0 C0
N123 X-30.756 Y147.544 Z85.514 B0 C0 F4000
N124 X-30.756 Y152.544 Z85.514 B0 C0 F3200
N125 X-27.350 Y152.593 Z85.514 B0 C0
N126 X-25.757 Y152.621 Z85.514 B0 C0
N127 X-13.883 Y152.827 Z85.514 B0 C0 F4000
N128 X-0.539 Y153.099 Z67.750 B0 C0
N129 X12.705 Y153.408 Z85.472 B0 C0
N130 X25.867 Y153.754 Z85.472 B0 C0
N131 X33.246 Y153.970 Z85.472 B0 C0
N132 X38.244 Y154.117 Z85.472 B0 C0 F3200
N133 X38.244 Y149.117 Z85.472 B0 C0
N134 X38.244 Y83.668 Z85.475 B0 C0 F4000
N135 X38.244 Y78.668 Z85.475 B0 C0 F3200
N136 X33.325 Y77.769 Z85.475 B0 C0
N137 X29.493 Y77.068 Z85.475 B0 C0 F4000
N138 X19.774 Y75.330 Z85.475 B0 C0
N139 X10.206 Y73.657 Z85.475 B0 C0
N140 X6.627 Y73.046 Z85.476 B0 C0
N141 X6.627 Y73.046 Z233.226 B0 C0 F10000
;TUIDAO
STOPMEA
N142 M01
;OPERATION NAME:Pocketing.329
SCANMEA(6, 2)
;JINDAO
N143 X-83.256 Y71.021 Z233.240 B0 C0
N144 X-83.256 Y71.021 Z98.490 B0 C0
N145 X-83.256 Y71.021 Z88.490 B0 C0 F1000
N146 X-83.256 Y105.311 Z85.554 B0 C0
N147 X-83.256 Y146.025 Z85.554 B0 C0 F4000
N148 X-83.256 Y151.025 Z85.554 B0 C0 F3200
N149 X-78.256 Y151.051 Z85.554 B0 C0
N150 X-76.756 Y151.059 Z85.527 B0 C0 F4000
N151 X-71.756 Y151.091 Z85.527 B0 C0 F3200
N152 X-71.756 Y146.091 Z85.527 B0 C0
N153 X-71.756 Y66.079 Z85.490 B0 C0 F4000
N154 X-71.756 Y61.079 Z85.490 B0 C0 F3200
N155 X-76.715 Y60.434 Z85.490 B0 C0
N156 X-78.296 Y60.228 Z85.490 B0 C0 F4000
N157 X-80.305 Y59.967 Z85.490 B0 C0 F3200
N158 X-83.256 Y59.597 Z85.490 B0 C0
N159 X-83.256 Y64.597 Z85.490 B0 C0
N160 X-83.256 Y105.311 Z85.554 B0 C0 F4000
N161 X-83.256 Y105.311 Z233.304 B0 C0 F10000
;TUIDAO
STOPMEA
N162 M01
;OPERATION NAME:Pocketing.328
SCANMEA(6, 3)
;JINDAO
N163 X-134.756 Y68.193 Z233.231 B0 C0
N164 X-134.756 Y68.193 Z98.481 B0 C0
N165 X-134.756 Y68.193 Z88.481 B0 C0 F1000
N166 X-134.756 Y102.483 Z85.506 B0 C0
N167 X-134.756 Y146.040 Z85.556 B0 C0 F4000
N168 X-134.756 Y151.040 Z85.556 B0 C0 F3200
N169 X-129.756 Y151.018 Z85.557 B0 C0
N170 X-128.256 Y151.012 Z85.558 B0 C0 F4000
N171 X-123.256 Y150.995 Z85.554 B0 C0 F3200
N172 X-123.256 Y145.995 Z85.555 B0 C0
N173 X-123.256 Y60.045 Z85.484 B0 C0 F4000
N174 X-123.256 Y55.045 Z85.484 B0 C0 F3200
N175 X-125.185 Y54.848 Z85.484 B0 C0
N176 X-128.232 Y54.551 Z85.484 B0 C0
N177 X-129.779 Y54.401 Z85.481 B0 C0 F4000
N178 X-132.774 Y54.109 Z85.481 B0 C0 F3200
N179 X-134.756 Y53.927 Z85.479 B0 C0
N180 X-134.756 Y58.927 Z85.481 B0 C0
N181 X-134.756 Y102.483 Z85.506 B0 C0 F4000
N182 X-134.756 Y102.483 Z233.256 B0 C0 F10000
;TUIDAO
N183 M01
STOPMEA
;OPERATION NAME:Pocketing.327
SCANMEA(6, 4)
;JINDAO
N184 X-182.756 Y85.800 Z233.219 B0 C0
N185 X-182.756 Y85.800 Z98.469 B0 C0
N186 X-182.756 Y85.800 Z88.469 B0 C0 F1000
N187 X-182.756 Y58.293 Z86.059 B0 C0
N188 X-184.301 Y58.201 Z85.924 B0 C0
N189 X-189.530 Y57.920 Z85.481 B0 C0
N190 X-190.641 Y57.860 Z85.481 B0 C0 F3200
N191 X-190.641 Y62.860 Z85.481 B0 C0
N192 X-190.641 Y139.591 Z85.535 B0 C0 F4000
N193 X-190.641 Y144.591 Z85.535 B0 C0 F3200
N194 X-182.756 Y144.484 Z85.535 B0 C0
N195 X-182.756 Y139.484 Z85.535 B0 C0
N196 X-182.756 Y63.293 Z85.466 B0 C0 F4000
N197 X-182.756 Y58.293 Z85.466 B0 C0 F3200
N198 X-184.301 Y58.201 Z85.466 B0 C0
N199 X-187.749 Y58.016 Z85.481 B0 C0
N200 X-189.530 Y57.920 Z85.481 B0 C0 F4000
N201 X-189.369 Y54.924 Z85.481 B0 C0
N202 X-189.315 Y53.926 Z85.481 B0 C0 F3200
N203 X-189.100 Y49.932 Z85.481 B0 C0
N204 X-190.851 Y49.838 Z85.481 B0 C0
N205 X-198.641 Y49.469 Z85.481 B0 C0
N206 X-198.641 Y54.469 Z85.481 B0 C0
N207 X-198.641 Y147.701 Z85.535 B0 C0 F4000
N208 X-198.641 Y152.701 Z85.535 B0 C0 F3200
N209 X-193.642 Y152.625 Z85.535 B0 C0
N210 X-179.756 Y152.436 Z85.535 B0 C0 F4000
N211 X-174.756 Y152.376 Z85.546 B0 C0 F3200
N212 X-174.756 Y147.376 Z85.535 B0 C0
N213 X-174.756 Y55.766 Z85.466 B0 C0 F4000
N214 X-174.756 Y50.766 Z85.466 B0 C0 F3200
N215 X-176.752 Y50.636 Z85.466 B0 C0
N216 X-179.747 Y50.458 Z85.466 B0 C0
N217 X-183.849 Y50.214 Z85.466 B0 C0 F4000
N218 X-189.100 Y49.932 Z85.481 B0 C0
N219 X-189.100 Y49.932 Z233.231 B0 C0 F10000
;TUIDAO
STOPMEA
N220 TRAFOOF
N221 TSOFF
;End of Path
N222 M9 ; coolant off
N223 L_FREI
N224 G0 SUPA Z0.0 D0
N225 G0 SUPA X625.5 Y0.0 D0
N226 D1
N227 G0 B0 C0
N228 CYCLE800()
N229 M5
;End_of_Program
N230 M17
;(MACHINE TIME=47.34 s)
;TNAME:D20R0L80
;TTIME:0-0-47
;(MACHINE TIME=47.34 min)
;****************************************
;Max X =38.244     Min X =-198.641
;Max Y =154.117     Min Y =.000
;Max Z =485.000     Min Z =.000
;Max B =.000     Min B =.000
;Max C =.000     Min C =.000
;****************************************
; SMCL0820